assets/1. 1-F/Cookie/Color/Cookie-color.svg

<svg width="100%" height="100%" viewBox="0 0 32 32" fill="none" xmlns="http://www.w3.org/2000/svg">
<path d="M2 16C2 25.29 8.27 30 16 30C23.73 30 30 25.26 30 16C30 6.57 23.73 2 16 2C8.27 2 2 6.43 2 16Z" fill="#DDB78F"/>
<path d="M2 16C2 25.29 8.27 30 16 30C23.73 30 30 25.26 30 16C30 6.57 23.73 2 16 2C8.27 2 2 6.43 2 16Z" fill="url(#paint0_radial_18_31720)"/>
<path d="M2 16C2 25.29 8.27 30 16 30C23.73 30 30 25.26 30 16C30 6.57 23.73 2 16 2C8.27 2 2 6.43 2 16Z" fill="url(#paint1_radial_18_31720)"/>
<path d="M2 16C2 25.29 8.27 30 16 30C23.73 30 30 25.26 30 16C30 6.57 23.73 2 16 2C8.27 2 2 6.43 2 16Z" fill="url(#paint2_radial_18_31720)"/>
<path d="M26.92 14.61L26.96 13.99C27 13.42 26.52 12.94 25.95 12.98L25.34 13.02C25.1 13.03 24.85 13.11 24.63 13.24C24.01 13.63 23.76 14.42 24.04 15.09C24.38 15.89 25.32 16.23 26.09 15.85C26.59 15.62 26.88 15.13 26.92 14.61Z" fill="#6F434A"/>
<g filter="url(#filter0_f_18_31720)">
<path d="M26.7344 13.875C26.7688 13.3847 26.4531 13.25 26.0156 13.25C25.5781 13.25 25.1653 13.4633 24.8125 13.6718C24.2792 14.0073 23.9955 14.43 24.2364 15.0063C24.5288 15.6944 25.0877 15.7019 25.75 15.375C26.3626 15.0932 26.5801 14.4399 26.7344 13.875Z" fill="url(#paint3_radial_18_31720)"/>
</g>
<path d="M19.89 8.32001L20.51 8.36001C21.08 8.40001 21.56 7.92001 21.52 7.35001L21.48 6.74001C21.47 6.50001 21.39 6.25001 21.26 6.03001C20.87 5.41001 20.08 5.16001 19.41 5.44001C18.61 5.78001 18.27 6.72001 18.65 7.49001C18.88 7.99001 19.37 8.28001 19.89 8.32001Z" fill="#6F434A"/>
<g filter="url(#filter1_f_18_31720)">
<path d="M20.0001 7.68832L20.4808 7.71707C20.9227 7.74582 21.2948 7.40083 21.2638 6.99115L21.2328 6.55273C21.2251 6.38023 21.163 6.20055 21.0622 6.04243C20.7599 5.59681 20.1474 5.41713 19.6279 5.61837C19.0077 5.86274 18.7441 6.53835 19.0387 7.09178C19.217 7.45114 19.5969 7.65957 20.0001 7.68832Z" fill="url(#paint4_radial_18_31720)"/>
</g>
<path d="M10.67 23.75L10.62 24.52C10.57 25.23 11.16 25.82 11.87 25.77L12.63 25.72C12.93 25.7 13.23 25.61 13.51 25.44C14.28 24.96 14.59 23.98 14.24 23.14C13.82 22.14 12.65 21.72 11.7 22.2C11.08 22.51 10.71 23.11 10.67 23.75Z" fill="#6F434A"/>
<g filter="url(#filter2_f_18_31720)">
<path d="M10.9819 23.765L10.9402 24.4071C10.8985 24.9991 11.3905 25.4911 11.9825 25.4494L12.6162 25.4077C12.8664 25.3911 13.1165 25.316 13.35 25.1743C13.9921 24.774 14.2506 23.9568 13.9587 23.2564C13.6085 22.4225 12.6329 22.0723 11.8407 22.4726C11.3238 22.7311 11.0152 23.2314 10.9819 23.765Z" fill="url(#paint5_radial_18_31720)"/>
</g>
<path d="M20.4 15.19L20.43 14.73C20.53 13.22 19.28 11.97 17.76 12.06L17.31 12.09C16.86 12.11 16.41 12.24 15.99 12.49C14.75 13.22 14.22 14.78 14.77 16.11C15.42 17.7 17.27 18.37 18.78 17.62C19.76 17.15 20.34 16.2 20.4 15.19Z" fill="#6F434A"/>
<g filter="url(#filter3_f_18_31720)">
<path d="M20.024 14.9836L20.0483 14.6099C20.1296 13.3833 19.1142 12.368 17.8795 12.4411L17.514 12.4655C17.1485 12.4817 16.7829 12.5873 16.4418 12.7904C15.4345 13.3833 15.004 14.6505 15.4508 15.7309C15.9788 17.0224 17.4815 17.5666 18.7081 16.9574C19.5041 16.5756 19.9752 15.804 20.024 14.9836Z" fill="url(#paint6_radial_18_31720)"/>
</g>
<path d="M7.68 9.41994L7.65 8.99994C7.57 7.62994 8.7 6.48994 10.07 6.57994L10.48 6.60994C10.89 6.62994 11.3 6.74994 11.68 6.96994C12.81 7.62994 13.28 9.04994 12.79 10.2599C12.2 11.6999 10.52 12.3099 9.15 11.6299C8.27 11.1899 7.74 10.3299 7.68 9.41994Z" fill="url(#paint7_radial_18_31720)"/>
<g filter="url(#filter4_f_18_31720)">
<path d="M8.15663 9.38764L8.13206 9.04363C8.06654 7.92149 8.99209 6.98774 10.1142 7.06146L10.45 7.08603C10.7859 7.10241 11.2825 7.0698 11.5938 7.25C12.5193 7.79059 12.8076 8.94642 12.4062 9.9375C11.923 11.117 10.4828 11.7548 9.36068 11.1978C8.63989 10.8374 8.20578 10.133 8.15663 9.38764Z" fill="url(#paint8_radial_18_31720)"/>
</g>
<path d="M24.26 22.82L24.28 23.18C24.36 24.35 23.38 25.33 22.21 25.25L21.86 25.23C21.51 25.21 21.16 25.11 20.83 24.92C19.86 24.35 19.46 23.14 19.88 22.11C20.39 20.88 21.82 20.35 23 20.94C23.76 21.3 24.21 22.03 24.26 22.82Z" fill="#6F434A"/>
<g filter="url(#filter5_f_18_31720)">
<path d="M24.0262 22.7197L24.043 23.0224C24.1103 24.0064 23.2861 24.8306 22.3021 24.7633L22.0078 24.7465C21.7134 24.7297 21.4191 24.6456 21.1415 24.4858C20.3258 24.0064 19.9893 22.9888 20.3426 22.1226C20.7715 21.0881 21.9741 20.6424 22.9665 21.1386C23.6057 21.4413 23.9842 22.0553 24.0262 22.7197Z" fill="url(#paint9_radial_18_31720)"/>
</g>
<path d="M5.90999 17.54L5.86999 16.92C5.82999 16.35 6.30999 15.87 6.87999 15.91L7.48999 15.95C7.72999 15.96 7.97999 16.04 8.19999 16.17C8.81999 16.56 9.06999 17.35 8.78999 18.02C8.44999 18.82 7.50999 19.16 6.73999 18.78C6.23999 18.55 5.93999 18.06 5.90999 17.54Z" fill="#6F434A"/>
<g filter="url(#filter6_f_18_31720)">
<path d="M6.21167 17.5158L6.17985 17.0226C6.14803 16.5691 6.52991 16.1872 6.9834 16.219L7.46872 16.2508C7.65966 16.2588 7.85856 16.3224 8.03359 16.4259C8.52686 16.7362 8.72576 17.3647 8.50299 17.8977C8.23249 18.5342 7.48463 18.8047 6.87202 18.5024C6.47422 18.3194 6.23554 17.9296 6.21167 17.5158Z" fill="url(#paint10_radial_18_31720)"/>
</g>
<defs>
<filter id="filter0_f_18_31720" x="23.6498" y="12.75" width="3.58717" height="3.33459" filterUnits="userSpaceOnUse" color-interpolation-filters="sRGB">
<feFlood flood-opacity="0" result="BackgroundImageFix"/>
<feBlend mode="normal" in="SourceGraphic" in2="BackgroundImageFix" result="shape"/>
<feGaussianBlur stdDeviation="0.25" result="effect1_foregroundBlur_18_31720"/>
</filter>
<filter id="filter1_f_18_31720" x="18.4181" y="5.03638" width="3.34752" height="3.18237" filterUnits="userSpaceOnUse" color-interpolation-filters="sRGB">
<feFlood flood-opacity="0" result="BackgroundImageFix"/>
<feBlend mode="normal" in="SourceGraphic" in2="BackgroundImageFix" result="shape"/>
<feGaussianBlur stdDeviation="0.25" result="effect1_foregroundBlur_18_31720"/>
</filter>
<filter id="filter2_f_18_31720" x="10.4377" y="21.807" width="4.14041" height="4.1449" filterUnits="userSpaceOnUse" color-interpolation-filters="sRGB">
<feFlood flood-opacity="0" result="BackgroundImageFix"/>
<feBlend mode="normal" in="SourceGraphic" in2="BackgroundImageFix" result="shape"/>
<feGaussianBlur stdDeviation="0.25" result="effect1_foregroundBlur_18_31720"/>
</filter>
<filter id="filter3_f_18_31720" x="14.7748" y="11.9374" width="5.77806" height="5.76941" filterUnits="userSpaceOnUse" color-interpolation-filters="sRGB">
<feFlood flood-opacity="0" result="BackgroundImageFix"/>
<feBlend mode="normal" in="SourceGraphic" in2="BackgroundImageFix" result="shape"/>
<feGaussianBlur stdDeviation="0.25" result="effect1_foregroundBlur_18_31720"/>
</filter>
<filter id="filter4_f_18_31720" x="7.62878" y="6.55737" width="5.45396" height="5.34436" filterUnits="userSpaceOnUse" color-interpolation-filters="sRGB">
<feFlood flood-opacity="0" result="BackgroundImageFix"/>
<feBlend mode="normal" in="SourceGraphic" in2="BackgroundImageFix" result="shape"/>
<feGaussianBlur stdDeviation="0.25" result="effect1_foregroundBlur_18_31720"/>
</filter>
<filter id="filter5_f_18_31720" x="19.7031" y="20.4355" width="4.84375" height="4.83167" filterUnits="userSpaceOnUse" color-interpolation-filters="sRGB">
<feFlood flood-opacity="0" result="BackgroundImageFix"/>
<feBlend mode="normal" in="SourceGraphic" in2="BackgroundImageFix" result="shape"/>
<feGaussianBlur stdDeviation="0.25" result="effect1_foregroundBlur_18_31720"/>
</filter>
<filter id="filter6_f_18_31720" x="5.67799" y="15.7172" width="3.41576" height="3.40894" filterUnits="userSpaceOnUse" color-interpolation-filters="sRGB">
<feFlood flood-opacity="0" result="BackgroundImageFix"/>
<feBlend mode="normal" in="SourceGraphic" in2="BackgroundImageFix" result="shape"/>
<feGaussianBlur stdDeviation="0.25" result="effect1_foregroundBlur_18_31720"/>
</filter>
<radialGradient id="paint0_radial_18_31720" cx="0" cy="0" r="1" gradientUnits="userSpaceOnUse" gradientTransform="translate(23.4375 7.8125) rotate(119.554) scale(20.9077)">
<stop stop-color="#FFDAAE"/>
<stop offset="1" stop-color="#D59077" stop-opacity="0"/>
</radialGradient>
<radialGradient id="paint1_radial_18_31720" cx="0" cy="0" r="1" gradientUnits="userSpaceOnUse" gradientTransform="translate(17.375 16) rotate(83.2902) scale(17.1172 16.2696)">
<stop offset="0.772068" stop-color="#BF9E7A" stop-opacity="0"/>
<stop offset="1" stop-color="#C4A47E"/>
</radialGradient>
<radialGradient id="paint2_radial_18_31720" cx="0" cy="0" r="1" gradientUnits="userSpaceOnUse" gradientTransform="translate(19.375 6.5) rotate(92.6808) scale(37.4159)">
<stop offset="0.324983" stop-color="#E9AB8B" stop-opacity="0"/>
<stop offset="0.505034" stop-color="#DE9A80"/>
<stop offset="0.656015" stop-color="#D07067"/>
</radialGradient>
<radialGradient id="paint3_radial_18_31720" cx="0" cy="0" r="1" gradientUnits="userSpaceOnUse" gradientTransform="translate(26.6119 13.3594) rotate(140.104) scale(2.75277 2.61177)">
<stop offset="0.175443" stop-color="#886562"/>
<stop offset="1" stop-color="#8E6C67" stop-opacity="0"/>
</radialGradient>
<radialGradient id="paint4_radial_18_31720" cx="0" cy="0" r="1" gradientUnits="userSpaceOnUse" gradientTransform="translate(21.2656 7.41039) rotate(-149.903) scale(2.90043 2.79159)">
<stop offset="0.175443" stop-color="#886562"/>
<stop offset="1" stop-color="#8E6C67" stop-opacity="0"/>
</radialGradient>
<radialGradient id="paint5_radial_18_31720" cx="0" cy="0" r="1" gradientUnits="userSpaceOnUse" gradientTransform="translate(11.1292 25.2582) rotate(-41.0159) scale(3.90831 4.00044)">
<stop offset="0.469854" stop-color="#896764" stop-opacity="0"/>
<stop offset="0.935135" stop-color="#896763"/>
</radialGradient>
<radialGradient id="paint6_radial_18_31720" cx="0" cy="0" r="1" gradientUnits="userSpaceOnUse" gradientTransform="translate(15.2748 16) rotate(-21.7768) scale(5.55942 5.69235)">
<stop offset="0.388269" stop-color="#896764" stop-opacity="0"/>
<stop offset="0.935135" stop-color="#896763"/>
</radialGradient>
<radialGradient id="paint7_radial_18_31720" cx="0" cy="0" r="1" gradientUnits="userSpaceOnUse" gradientTransform="translate(11.125 8.875) rotate(123.403) scale(3.63294 3.63565)">
<stop stop-color="#7D5755"/>
<stop offset="1" stop-color="#60383B"/>
</radialGradient>
<radialGradient id="paint8_radial_18_31720" cx="0" cy="0" r="1" gradientUnits="userSpaceOnUse" gradientTransform="translate(8.12878 9.5625) rotate(-3.96087) scale(4.82023 4.82383)">
<stop offset="0.596528" stop-color="#896764" stop-opacity="0"/>
<stop offset="0.935135" stop-color="#896763"/>
</radialGradient>
<radialGradient id="paint9_radial_18_31720" cx="0" cy="0" r="1" gradientUnits="userSpaceOnUse" gradientTransform="translate(20.4375 24.5313) rotate(-40.886) scale(4.77422 4.88362)">
<stop offset="0.469854" stop-color="#896764" stop-opacity="0"/>
<stop offset="0.935135" stop-color="#896763"/>
</radialGradient>
<radialGradient id="paint10_radial_18_31720" cx="0" cy="0" r="1" gradientUnits="userSpaceOnUse" gradientTransform="translate(6.3253 18.4778) rotate(-40.8959) scale(3.00101 3.06992)">
<stop offset="0.469854" stop-color="#896764" stop-opacity="0"/>
<stop offset="0.935135" stop-color="#896763"/>
</radialGradient>
</defs>
</svg>

<svg width="100%" height="100%" viewBox="0 0 32 32" xmlns="http://www.w3.org/2000/svg"><path fill="#DDB78F" d="M2 16c0 9.29 6.27 14 14 14s14-4.74 14-14c0-9.43-6.27-14-14-14S2 6.43 2 16"/><path fill="url(#a)" d="M2 16c0 9.29 6.27 14 14 14s14-4.74 14-14c0-9.43-6.27-14-14-14S2 6.43 2 16"/><path fill="url(#b)" d="M2 16c0 9.29 6.27 14 14 14s14-4.74 14-14c0-9.43-6.27-14-14-14S2 6.43 2 16"/><path fill="url(#c)" d="M2 16c0 9.29 6.27 14 14 14s14-4.74 14-14c0-9.43-6.27-14-14-14S2 6.43 2 16"/><path fill="#6F434A" d="m26.92 14.61.04-.62a.95.95 0 0 0-1.01-1.01l-.61.04c-.24.01-.49.09-.71.22a1.51 1.51 0 0 0-.59 1.85c.34.8 1.28 1.14 2.05.76.5-.23.79-.72.83-1.24"/><g filter="url(#d)"><path fill="url(#e)" d="M26.734 13.875c.035-.49-.28-.625-.718-.625s-.85.213-1.203.422c-.534.335-.817.758-.577 1.334.293.688.852.696 1.514.369.613-.282.83-.935.984-1.5"/></g><path fill="#6F434A" d="m19.89 8.32.62.04a.95.95 0 0 0 1.01-1.01l-.04-.61a1.55 1.55 0 0 0-.22-.71 1.51 1.51 0 0 0-1.85-.59c-.8.34-1.14 1.28-.76 2.05.23.5.72.79 1.24.83"/><g filter="url(#f)"><path fill="url(#g)" d="m20 7.688.48.03c.443.028.815-.317.784-.727l-.031-.438a1.06 1.06 0 0 0-.17-.51c-.303-.446-.916-.626-1.435-.425-.62.245-.884.92-.59 1.474.179.36.559.568.962.596"/></g><path fill="#6F434A" d="m10.67 23.75-.05.77c-.05.71.54 1.3 1.25 1.25l.76-.05c.3-.02.6-.11.88-.28a1.87 1.87 0 0 0 .73-2.3 1.85 1.85 0 0 0-2.54-.94c-.62.31-.99.91-1.03 1.55"/><g filter="url(#h)"><path fill="url(#i)" d="m10.982 23.765-.042.642a.976.976 0 0 0 1.043 1.042l.633-.041c.25-.017.5-.092.734-.234.642-.4.9-1.217.609-1.918a1.543 1.543 0 0 0-2.118-.783 1.55 1.55 0 0 0-.86 1.292"/></g><path fill="#6F434A" d="m20.4 15.19.03-.46c.1-1.51-1.15-2.76-2.67-2.67l-.45.03c-.45.02-.9.15-1.32.4a2.93 2.93 0 0 0-1.22 3.62c.65 1.59 2.5 2.26 4.01 1.51.98-.47 1.56-1.42 1.62-2.43"/><g filter="url(#j)"><path fill="url(#k)" d="m20.024 14.984.024-.374a2.042 2.042 0 0 0-2.168-2.169l-.366.024a2.3 2.3 0 0 0-1.072.325 2.38 2.38 0 0 0-.991 2.94 2.374 2.374 0 0 0 3.257 1.227 2.33 2.33 0 0 0 1.316-1.973"/></g><path fill="url(#l)" d="M7.68 9.42 7.65 9c-.08-1.37 1.05-2.51 2.42-2.42l.41.03c.41.02.82.14 1.2.36 1.13.66 1.6 2.08 1.11 3.29a2.656 2.656 0 0 1-3.64 1.37c-.88-.44-1.41-1.3-1.47-2.21"/><g filter="url(#m)"><path fill="url(#n)" d="m8.157 9.388-.025-.344a1.87 1.87 0 0 1 1.982-1.983l.336.025c.336.016.833-.016 1.144.164.925.54 1.214 1.696.812 2.688-.483 1.179-1.923 1.817-3.045 1.26a2.18 2.18 0 0 1-1.204-1.81"/></g><path fill="#6F434A" d="m24.26 22.82.02.36c.08 1.17-.9 2.15-2.07 2.07l-.35-.02c-.35-.02-.7-.12-1.03-.31a2.28 2.28 0 0 1-.95-2.81A2.27 2.27 0 0 1 23 20.94c.76.36 1.21 1.09 1.26 1.88"/><g filter="url(#o)"><path fill="url(#p)" d="m24.026 22.72.017.302a1.638 1.638 0 0 1-1.74 1.741l-.295-.017a1.95 1.95 0 0 1-.866-.26 1.916 1.916 0 0 1-.8-2.363 1.91 1.91 0 0 1 2.625-.984c.639.302 1.017.916 1.06 1.58"/></g><path fill="#6F434A" d="m5.91 17.54-.04-.62a.95.95 0 0 1 1.01-1.01l.61.04c.24.01.49.09.71.22.62.39.87 1.18.59 1.85-.34.8-1.28 1.14-2.05.76-.5-.23-.8-.72-.83-1.24"/><g filter="url(#q)"><path fill="url(#r)" d="m6.212 17.516-.032-.493a.756.756 0 0 1 .803-.804l.486.032c.19.008.39.071.565.175.493.31.692.939.469 1.472a1.197 1.197 0 0 1-1.631.604 1.15 1.15 0 0 1-.66-.986"/></g><defs><radialGradient id="a" cx="0" cy="0" r="1" gradientTransform="rotate(119.554 9.443 10.733)scale(20.9077)" gradientUnits="userSpaceOnUse"><stop stop-color="#FFDAAE"/><stop offset="1" stop-color="#D59077" stop-opacity="0"/></radialGradient><radialGradient id="b" cx="0" cy="0" r="1" gradientTransform="rotate(83.29 -.309 17.77)scale(17.1172 16.2696)" gradientUnits="userSpaceOnUse"><stop offset=".772" stop-color="#BF9E7A" stop-opacity="0"/><stop offset="1" stop-color="#C4A47E"/></radialGradient><radialGradient id="c" cx="0" cy="0" r="1" gradientTransform="rotate(92.681 6.586 12.495)scale(37.4159)" gradientUnits="userSpaceOnUse"><stop offset=".325" stop-color="#E9AB8B" stop-opacity="0"/><stop offset=".505" stop-color="#DE9A80"/><stop offset=".656" stop-color="#D07067"/></radialGradient><radialGradient id="e" cx="0" cy="0" r="1" gradientTransform="rotate(140.104 10.882 11.509)scale(2.75277 2.61177)" gradientUnits="userSpaceOnUse"><stop offset=".175" stop-color="#886562"/><stop offset="1" stop-color="#8E6C67" stop-opacity="0"/></radialGradient><radialGradient id="g" cx="0" cy="0" r="1" gradientTransform="matrix(-2.50939 -1.45447 1.39989 -2.41522 21.266 7.41)" gradientUnits="userSpaceOnUse"><stop offset=".175" stop-color="#886562"/><stop offset="1" stop-color="#8E6C67" stop-opacity="0"/></radialGradient><radialGradient id="i" cx="0" cy="0" r="1" gradientTransform="matrix(2.94893 -2.5649 2.62536 3.01844 11.13 25.258)" gradientUnits="userSpaceOnUse"><stop offset=".47" stop-color="#896764" stop-opacity="0"/><stop offset=".935" stop-color="#896763"/></radialGradient><radialGradient id="k" cx="0" cy="0" r="1" gradientTransform="matrix(5.16268 -2.0625 2.11182 5.28612 15.275 16)" gradientUnits="userSpaceOnUse"><stop offset=".388" stop-color="#896764" stop-opacity="0"/><stop offset=".935" stop-color="#896763"/></radialGradient><radialGradient id="l" cx="0" cy="0" r="1" gradientTransform="rotate(123.403 3.173 7.432)scale(3.63294 3.63565)" gradientUnits="userSpaceOnUse"><stop stop-color="#7D5755"/><stop offset="1" stop-color="#60383B"/></radialGradient><radialGradient id="n" cx="0" cy="0" r="1" gradientTransform="matrix(4.80872 -.33296 .3332 4.8123 8.129 9.563)" gradientUnits="userSpaceOnUse"><stop offset=".597" stop-color="#896764" stop-opacity="0"/><stop offset=".935" stop-color="#896763"/></radialGradient><radialGradient id="p" cx="0" cy="0" r="1" gradientTransform="matrix(3.60937 -3.125 3.1966 3.69208 20.438 24.531)" gradientUnits="userSpaceOnUse"><stop offset=".47" stop-color="#896764" stop-opacity="0"/><stop offset=".935" stop-color="#896763"/></radialGradient><radialGradient id="r" cx="0" cy="0" r="1" gradientTransform="matrix(2.26846 -1.96472 2.00984 2.32055 6.325 18.478)" gradientUnits="userSpaceOnUse"><stop offset=".47" stop-color="#896764" stop-opacity="0"/><stop offset=".935" stop-color="#896763"/></radialGradient><filter id="d" width="3.587" height="3.335" x="23.65" y="12.75" color-interpolation-filters="sRGB" filterUnits="userSpaceOnUse"><feFlood flood-opacity="0" result="BackgroundImageFix"/><feBlend in="SourceGraphic" in2="BackgroundImageFix" result="shape"/><feGaussianBlur result="effect1_foregroundBlur_18_31720" stdDeviation=".25"/></filter><filter id="f" width="3.348" height="3.182" x="18.418" y="5.036" color-interpolation-filters="sRGB" filterUnits="userSpaceOnUse"><feFlood flood-opacity="0" result="BackgroundImageFix"/><feBlend in="SourceGraphic" in2="BackgroundImageFix" result="shape"/><feGaussianBlur result="effect1_foregroundBlur_18_31720" stdDeviation=".25"/></filter><filter id="h" width="4.14" height="4.145" x="10.438" y="21.807" color-interpolation-filters="sRGB" filterUnits="userSpaceOnUse"><feFlood flood-opacity="0" result="BackgroundImageFix"/><feBlend in="SourceGraphic" in2="BackgroundImageFix" result="shape"/><feGaussianBlur result="effect1_foregroundBlur_18_31720" stdDeviation=".25"/></filter><filter id="j" width="5.778" height="5.769" x="14.775" y="11.937" color-interpolation-filters="sRGB" filterUnits="userSpaceOnUse"><feFlood flood-opacity="0" result="BackgroundImageFix"/><feBlend in="SourceGraphic" in2="BackgroundImageFix" result="shape"/><feGaussianBlur result="effect1_foregroundBlur_18_31720" stdDeviation=".25"/></filter><filter id="m" width="5.454" height="5.344" x="7.629" y="6.557" color-interpolation-filters="sRGB" filterUnits="userSpaceOnUse"><feFlood flood-opacity="0" result="BackgroundImageFix"/><feBlend in="SourceGraphic" in2="BackgroundImageFix" result="shape"/><feGaussianBlur result="effect1_foregroundBlur_18_31720" stdDeviation=".25"/></filter><filter id="o" width="4.844" height="4.832" x="19.703" y="20.436" color-interpolation-filters="sRGB" filterUnits="userSpaceOnUse"><feFlood flood-opacity="0" result="BackgroundImageFix"/><feBlend in="SourceGraphic" in2="BackgroundImageFix" result="shape"/><feGaussianBlur result="effect1_foregroundBlur_18_31720" stdDeviation=".25"/></filter><filter id="q" width="3.416" height="3.409" x="5.678" y="15.717" color-interpolation-filters="sRGB" filterUnits="userSpaceOnUse"><feFlood flood-opacity="0" result="BackgroundImageFix"/><feBlend in="SourceGraphic" in2="BackgroundImageFix" result="shape"/><feGaussianBlur result="effect1_foregroundBlur_18_31720" stdDeviation=".25"/></filter></defs></svg>
